X: 80
T: PERTHSHIRE HUNT
%R: reel
B: Jean White "100 Popular Hornpipes, Reels, Jigs and Country Dances", Boston 1880 p.33
F: http://www.loc.gov/resource/sm1880.09124.0#seq-1
Z: 2014 John Chambers <jc:trillian.mit.edu>
M: C|
L: 1/8
K: A
% - - - - - - - - - - - - - - - - - - - - - - - - - - - - -
F |\
E2CE A,ECE | A,ECE FB,B,F |\
E2CE A,ECE | ceBd cAA :|
|: e |\
c/B/A eA fAeA | c/B/A eA fBBd |\
c/B/A eA fAeA | EFAB cAAc |
c/B/A eA fAeA | c/B/A eA fBBd |\
ceAc dfBd | EFAB cAA H:|
% - - - - - - - - - - - - - - - - - - - - - - - - - - - - -

%%sep 1 1 500
%%sep 1 1 500
